X:1
T: Miss Evelina Edwards
C:C Sherrit
R:Strathspey
Q: 128
K:A
M:4/4
L:1/16
D2|:CA,3 A,3B, C3D EC3|E3G A3B cA3 A3E|DB,3 B,3C D3E F3B|((3d2c2B2) ((3A2G2F2) GE3 E3D|
CA,3 A,3B, C3D EC3|E3G A3B cA3 A3=G|((3F2A2d2) ((3f2e2d2) ce3 A3F|((3E2G2B2) e3d cA3 A4:|
|:ce3 e3d cA3 e3d|c3A G3A F3A E3A|Bf3 f3e df3 B3c|((3d2c2B2) ((3A2G2F2) GE3 E3d|
ce3 e3d cA3 e3d|c3A G3A F3A E3A|((3F2A2d2) ((3f2e2d2) ce3 A3F|((3E2G2B2) e3d cA3 A4:|
